fs/notebook_20_filled.svg

<svg viewBox="0 0 20 20" fill="none" xmlns="http://www.w3.org/2000/svg" height="1em" width="1em">
  <path d="M5 2C3.89543 2 3 2.89543 3 4V16C3 17.1046 3.89543 18 5 18H13C14.1046 18 15 17.1046 15 16V4C15 2.89543 14.1046 2 13 2H5ZM5 5.5C5 5.22386 5.22386 5 5.5 5H12.5C12.7761 5 13 5.22386 13 5.5V6.5C13 6.77614 12.7761 7 12.5 7H5.5C5.22386 7 5 6.77614 5 6.5V5.5ZM16 6H16.5C16.7761 6 17 6.22386 17 6.5V8C17 8.27614 16.7761 8.5 16.5 8.5H16V6ZM16 9.5H16.5C16.7761 9.5 17 9.72386 17 10V11.5C17 11.7761 16.7761 12 16.5 12H16V9.5ZM16 13H16.5C16.7761 13 17 13.2239 17 13.5V15C17 15.2761 16.7761 15.5 16.5 15.5H16V13Z" fill="#212121"/>
</svg>

<svg viewBox="0 0 20 20" fill="none" xmlns="http://www.w3.org/2000/svg" height="1em" width="1em">
  <path d="M5 2a2 2 0 0 0-2 2v12a2 2 0 0 0 2 2h8a2 2 0 0 0 2-2V4a2 2 0 0 0-2-2H5Zm0 3.5a.5.5 0 0 1 .5-.5h7a.5.5 0 0 1 .5.5v1a.5.5 0 0 1-.5.5h-7a.5.5 0 0 1-.5-.5v-1ZM16 6h.5a.5.5 0 0 1 .5.5V8a.5.5 0 0 1-.5.5H16V6Zm0 3.5h.5a.5.5 0 0 1 .5.5v1.5a.5.5 0 0 1-.5.5H16V9.5Zm0 3.5h.5a.5.5 0 0 1 .5.5V15a.5.5 0 0 1-.5.5H16V13Z" fill="#212121"/>
</svg>
